X:1
T: The Duchess of Manchester's New Strathspey
T:aka The Dutchess of Manchester's New Strathspey
C:R. Mackintosh
R:Strathspey
Q: 128
K:F
M:4/4
L:1/16
|:C2|F3G AF3 dcBA c2f2|cA3 cf3 g3f ga3|F3G AF3 dcBA c2f2|g3f ga3 fff2 f2C2|
F3G AF3 dcBA c2f2|cA3 cf3 g3f ga3|F3G AF3 dcBA c2f2|g3f ga3 fff2 f2c2|
f3g af3 eb3 ge3|f3c dcBA B2G2 G2c2|f3g af3 eb3 ge3|cg3 ec3 a2f2 f2c2|
f3g af3 eb3 ge3|f3c dcBA B2G2 G2cB|A3c Bd3 cf3 eg3|a2f2 cegb af3 f2:|
